X:1
T:Ave Maria - Cherubini
T:#
%%score 1 { ( 2 5 ) | ( 3 4 ) }
L:1/8
Q:1/4=72
M:3/4
K:C
V:1 treble nm="Soprano" snm="S"
V:2 treble nm="Organ"
V:5 treble 
V:3 bass 
V:4 bass 
V:1
 z6 z2 | z8 | z8 | z8 | z8 | z8 |[M:3/4] z6 | z6 | z6 | z6 | z6 |[K:F][M:3/4][K:treble] z6 | F6 | %13
w: ||||||||||||A-|
 G4 z2 | A4 B (c/d/) | (c4{c} B2) | A2 z2 z2 | c4 c>c | (c3/2{e}d/) c2 z2 | c4 c>c | %20
w: ve,|A- ve Ma\- *|ri\- *|a,|gra- ti- a|ple\- * na:|Do- mi- nus|
 (c/d/e/f/) c2 z2 | (fd/) z/ (dB/) z/ (BG/) z/ | (F4{A} G2) | F2 z2 z2 | z6 | z2 z2 A>A | %26
w: te\- * * * cum:|Do\- * mi\- * nus *|te\- *|cum:||Be- ne-|
 A4 (T=B3/2 A/4B/4) | c3 =B cd | (e4{e} d>)c | c2 z2 z2 | d4 c>=B | c2 G2 z2 | d3 =B AG | %33
w: di- cta * *|tu in mu- li-|e\- * ri-|bus,|et be- ne-|di- ctus|fru- ctus ven- tris|
 G2 c2 z2 | g4 A z | f4 G z | eg ce Af | (e2 Tx7/2 c/4d/4) | c2 z2 z2 | z6 | z6 | c4{c} =B>A | %42
w: tu- i,|Je- sus,|Je- sus|fru- ctus ven- tris tu- i|Je\- * *|sus,|||San- * Ma-|
 =B4 E z | (c3 f/e/{e}d/c/)({c} =B/A/) | =B4 E z | ^c2 d2 e2 | f3 d A_B | f>d B2 z2 | %48
w: ri- a,|Ma\- * * * * * *|De- i,|o- ra pro|no- bis pec- ca-|to- ri- bus,|
 f2"^cresc." e2 f2 | !>!g3 e!p! c_B | _A6 | G2 z2 z2 | F6 | G4 z2 | =A4 B (c/d/) | (c4{c} B2) | %56
w: nunc et in|ho- ra mor- tis|no-|strae.|San-|cta,|San- cta Ma\- *|ri\- *|
 A2 z2 z2 | F4 F2 | (G>F) F2 z2 | (F>f) f3 f | _g3 !>!f _dc | =B4 _B2 | A2 z f gf | ed (cB) (AG) | %64
w: a,|Ma- ter|De\- * i,|o\- * ra pro|no- bis pec- ca-|to- ri-|bus nunc et in|ho- ra mor\- * tis *|
 (F4{A} G2) | F2 z2 z2 | c6 | A2 z/ (A/B/=B/ c/a/g/f/) | (Tx4-x3/2d/4e/4) | %69
w: no\- *|strae.|A-|men, A\- * * * * * *||
 f2 z/ (f/g/a/ g/f/e/d/ | c3 d e/f/d/B/ | A c2 =B_BA | !fermata!Tx4-x3/2F/4G/4) | F2 z2 z2 | z6 | %75
w: men, A\- * * * * * *||||men.||
 z6 |] %76
w: |
V:2
[K:F]"^larghetto""^Ave Maria""^Luigi Cherubini\n(1760-1842)" z6 | (F4 E/F/G/A/ z2 | G2) z2 z2 z2 | %3
 A4 (Bc/d/) z2 | c2- (c/f/e/d/ c/d/B/G/) z2 | E2 F (cf[Ge]) z2 | ([Bg]2 [Af]) (A d [Cc]) | %7
({c} [GB]2 [FA]) (FGA) | B[Ac][^Gd][=Ge][cf]-[cg] | c f2 g/f/{g}fe/d/ | c/d/e/f/ A2 G>A | %11
 G2 F z z2 | F6 | G4 z2 | A4 Bc/d/ | c4- cB | [FA]2 z (fcA) | (c4 B2 | A2) z (cAF) | E6 | %20
 (F2- F/G/A/B/ c/A/F/E/) | f!wedge!d d!wedge!B B!wedge!G | F4 E2 | F2 x4 | (c4 B>G) | %25
 F>[A,CF]!>(! [A,CF]2 A2!>)! |!p! [CA]4 [!courtesy!=DE=B]2- | [CEc]3 [DFB][CEc][^Fd] | %28
 (e!wedge!c) (e!wedge!c) =B2 | c3 (c=BA) | ([Gd]4 c>=B) | c3 (f/e/ d/c/=B/A/) | (d3 =BAG) | %33
 c3 (Gce) | g4- gA | f4- fG | eg c (efd) | c4 Tx3/2 A/4=B/4 |!mf! c2- c/c/=B/A/ G/f/e/d/ | %39
 ce z/ c/=B/A/ G/f/d/B/ | d3/2e/4d/4 c[CE][DE][DE] |!mp! c2 A4- | A2 ^G2 =B2- | B2 A2 [cf]2 | %44
 [=Be]4 [Bd]2 | [_B^c]2 [Ad]2 [Ace]2 | [Adf]4 z2 | z [Bf] [Bf][Bf][Bf][Bf] | f(f e)(e f)f | %49
 [eg]3 ecB | _A6 | ([=Ec][F_A][EG][F=A][=DB][CE]) | F6 | G4 z2 | =A4 Bc/d/ | c4- cB | %56
 [FA]2 z (cAF) | f4 _e2 | d [FBd]2 [FBd]2 [FBd] | [F_A_d] [Adf]2!<(! [Adf]2 [Adf] | %60
 !>![_G_d_g]2!<)! z!p! (fdc) | =BB z B z _B | =Af!courtesy!=gf=e=d | cBA[B,G][C^F][DG] | =F4 E2 | %65
 F2 z/ A/B/=B/ c/A/c/f/ | (Tx4-x3/2d/4e/4) | f2 z2 z/ (c/B/A/) | (Tx4-x3/2F/4G/4) | %69
 A2 z/ (A/c/f/ e/d/c/B/) | (A3 B G/A/B/G/) | (F A2 ^G=GF) | !fermata!Tx4-x3/2D/4E/4 | %73
 F z/ F/ A/c/f/c/ A/F/C/A,/ | F, z [Acf]2 [Acf]2 | [Acf]4 z2 |] %76
V:3
[K:F] A,CFCA,C | A,CA,CA,C z2 | E,G,CG,E,G, z2 | z CA,CDB, z2 | x6 z2 | x4 x x z2 | z [CE] F z z2 | %7
 z [C,E,] [D,F,] z z _E | DC=B,[_B,C]-[A,C][G,E] | [A,F]2 [D,F,A,]2 [B,,F,B,]2 | %10
 [C,F,A,]2 [C,F,A,]2 [C,G,B,]2 | B,2 A, z z2 | z2 F,2 F,2 | C,2 C,2 z2 | z CA,CDB, | x4 C2- | %16
 CC A, x x2 | G,CG,CG,C | A,C A, x x2 | B,CB,CB,C | A,C A, z z2 | D2 z2 G,2 | A,2 A,2 B,2 | %23
 A,A, A, z z2 | z2 z2 G,>B, | [F,A,]>[F,,C,F,] [F,,C,F,]2 z2 | [F,,F,]2 [E,,E,]2 [^G,,E,-]2 | %27
 [A,,E,]E,A,^G,A,[_A,C] | [G,C]2 [G,C]2 [G,D]2 | z G, C z z2 | =B,G,B,G,DG, | CG, C z z2 | %32
 =B,G,B,G,B,G, | z G, C z z2 |[K:treble] z [EG][EG][EG] [^CEG] z | z [DF][DF][DF] [=B,DF] z | %36
[K:bass] x4 A,_A, | G,4- [G,,G,]2 | z/ E,/G,/E,/ CD/C/ =B,-[G,B,] | C/E,/G,/E,/ CD/C/ =B,-[G,B,] | %40
 =B,2 C x x2 | x4 x2 | x4 x2 | A,4 z2 | E,4[K:treble] E2 | =G2 F2 [EG]2 | [DF]4 z2 | %47
 z (.[DF] .[DF].[DF].[DF].[DF]) | D2 ^C2 D2 | x6 | x6 | G, C2 =A,G,B, | z2 F,2 F,2 | C,2 C,2 z2 | %54
 z CA,CDB, | A,2 G,2 C2- | CC A, z z2 | CFCFCF | B,2 B,2 B,2 | _C2 C2 C2 | x2 x2[K:treble] x2 | %61
 x4 x2 | x6 |[K:bass] z2 z G,A,B, | x4 x2 | x4 x2 | x6 | x6 | x6 | [F,A,]2 z2 z2 | z6 | z6 | %72
 [C,G,B,]2 z2 !fermata!z2 | [F,A,] z [F,A,C] z [F,A,C] z | F,, z/ (F,/ A,/C/F/C/ A,/F,/C,/A,,/) | %75
 F,,4 z2 |] %76
V:4
[K:F] F,6- | F,6 x2 | C,4 z2 x2 | F,6- x2 | [F,A,][F,A,C] [F,A,C] z z [B,,D,G,] x2 | %5
 [C,G,B,]2 [F,A,] z z2 x2 | x6 | x6 | x6 | x6 | x6 | F,3 F,C,A,, | F,,6 | C,,6 | F,6 | %15
 [F,A,]2 G,2 [C,G,]2 | F,2 F, z z2 | E,2 E,2 E,2 | F,2 F, z z2 | G,2 G,2 G,2 | A,2 A, z z2 | %21
 z2 z2 B,,2 | C,4 C,2 | F,F, F, z z2 | x4 [C,G,]2 | x6 | x6 | x6 | x6 | C,3 x3 | C,6- | C,3 z z2 | %32
 C,6 | C,3 z z2 |[K:treble] x6 | x6 |[K:bass] [CE][=B,D][A,C][G,_B,] F,2 | x6 | C,6 | C,6- | %40
 [C,G,]3 [C,G,][=B,,^G,][E,G,] | [A,,A,]4 C,2 | E,4 ^G,2 | x6 | x4[K:treble] x2 | x6 | x6 | x6 | %48
 x6 | [=C,G,=C]4 [E,C-]2 | [F,C]2 [_D,F,]2 [=B,,_A,]2 | C,6 | F,,6 | C,,4 x2 | F,6- | %55
 F,2 G,2- [C,G,]2 | F,2 F, x x2 | A,2 A,2 A,2 | B,2 [B,,F,]4 | _C,6 | %60
 [B,,_D,_G,B,]2 z2[K:treble] [B,_D][CE] | [_DF]2 [=DF]2 [EG]2 | F z z2 z2 |[K:bass] z2 z2 z B,, | %64
 [C,A,]2 [C,A,]2 [C,B,]2 | [F,A,]2 z2 z2 | [C,G,]2 z2 z2 | [D,F,]2 z2 z2 | [C,B,]2 z2 z2 | x6 | %70
 x6 | x6 | x6 | x6 | x6 | x6 |] %76
V:5
[K:F] x6 | x8 | x8 | x8 | x8 | x8 | x6 | x6 | x6 | x6 | x6 | x6 | A,CA,CA,C | ECECG,C | F6 | %15
 FADFEG | x6 | x6 | x6 | x6 | x6 | F2 FD D2 | C6- | C2 z/ ((c/{e}d/c/ f/c/d/A/)) | %24
 z/ F/{A}G/F/ A/E/F/C/- [CE]2 | x6 | ^D2 E2 x2 | x6 | G4 FG | E3 x x2 | F6 | EG E z z2 | %32
 [FG]4- F2 | EG E z z2 | z _BBB A x | z _AAA G x | x6 | z2 G2 F2 | E3 F/E/ DF | E2 EF/E/ DF | %40
 F2 E x x2 | [CE]4 E2 | =B,4 E2- | [Ec]4 A2- | A2 ^G2 x2 | x6 | x6 | x6 | [FB]2 [GB]2 [FB]2 | %49
 [GB]4 G2- | G2 F4 | x6 | A,CA,CA,C | ECECG,C | F6- | FADFEG | x6 | x6 | x6 | x6 | x6 | x6 | x6 | %63
 x6 | C6- | C2 x2 x2 | x4 x2 | x4 x2 | x4 x2 | x4 x2 | x4 x2 | x4 x2 | x4 x2 | x4 x2 | x4 x2 | %75
 x4 x2 |] %76

